public/icon/icon-arrow-right-mini.svg

<svg width="14" height="15" viewBox="0 0 14 15" fill="none" xmlns="http://www.w3.org/2000/svg">
<path d="M1.16715 8.66427L10.0258 8.66427L6.17423 12.501C5.95445 12.7206 5.83098 13.0185 5.83098 13.329C5.83098 13.6396 5.95445 13.9374 6.17423 14.157C6.39401 14.3766 6.6921 14.5 7.00291 14.5C7.31372 14.5 7.61181 14.3766 7.83159 14.157L13.6673 8.32608C13.7736 8.21517 13.8569 8.08439 13.9124 7.94124C14.0292 7.65731 14.0292 7.33885 13.9124 7.05493C13.8569 6.91178 13.7736 6.781 13.6673 6.67009L7.83159 0.839137C7.72309 0.729832 7.594 0.643072 7.45177 0.583867C7.30954 0.52466 7.15699 0.494179 7.00291 0.494179C6.84883 0.494179 6.69628 0.52466 6.55405 0.583866C6.41182 0.643071 6.28274 0.729832 6.17423 0.839137C6.06484 0.947549 5.97801 1.07653 5.91875 1.21864C5.8595 1.36075 5.82899 1.51318 5.82899 1.66713C5.82899 1.82108 5.8595 1.97351 5.91875 2.11562C5.97801 2.25773 6.06484 2.38671 6.17423 2.49513L10.0258 6.33189L1.16715 6.33189C0.857605 6.33189 0.560734 6.45476 0.341851 6.67346C0.122967 6.89217 6.39166e-07 7.18879 6.12127e-07 7.49808C5.85088e-07 7.80738 0.122967 8.104 0.341851 8.3227C0.560734 8.54141 0.857605 8.66427 1.16715 8.66427Z" fill="#666F0F"/>
</svg>

<svg width="14" height="15" fill="none" xmlns="http://www.w3.org/2000/svg"><path d="M1.167 8.664h8.859l-3.852 3.837a1.17 1.17 0 101.658 1.656l5.835-5.83c.107-.112.19-.243.245-.386a1.165 1.165 0 000-.886 1.165 1.165 0 00-.245-.385L7.832.84a1.167 1.167 0 00-1.658 0 1.166 1.166 0 000 1.655l3.852 3.837H1.167a1.168 1.168 0 00-.825 1.99c.219.22.516.342.825.342z" fill="#666F0F"/></svg>
